src/assets/icons/category_Cars.svg

<?xml version="1.0" encoding="UTF-8" standalone="no"?>
<svg width="38px" height="38px" viewBox="0 0 38 38" version="1.1" xmlns="http://www.w3.org/2000/svg" xmlns:xlink="http://www.w3.org/1999/xlink">
    <!-- Generator: sketchtool 41.2 (35397) - http://www.bohemiancoding.com/sketch -->
    <title>858B1F37-1052-4DD5-8F89-578E0FF82005</title>
    <desc>Created with sketchtool.</desc>
    <defs></defs>
    <g id="Nav" stroke="none" stroke-width="1" fill="none" fill-rule="evenodd">
        <g id="Categories_Selected_Mobile-" transform="translate(-80.000000, -116.000000)" fill="#AEAEAE">
            <path d="M108.950417,145.375 L107.367083,145.375 C106.934833,145.375 106.583333,145.0235 106.583333,144.59125 L106.583333,143.791667 C106.583333,143.695875 106.560375,143.607208 106.5295,143.5225 C107.637833,143.433833 108.515792,143.334875 109.190292,143.243042 C109.386625,143.216125 109.571875,143.158333 109.75,143.088667 L109.75,144.59125 C109.75,145.016375 109.38425,145.375 108.950417,145.375 L108.950417,145.375 Z M88.358375,141.673958 C87.916625,141.613792 87.5833333,141.22825 87.5833333,140.777 L87.5833333,138.489875 C89.5450833,138.752708 93.0355417,139.059083 98.6666667,139.059083 C104.297792,139.059083 107.78825,138.752708 109.75,138.489875 L109.75,140.777 C109.75,141.22825 109.416708,141.613792 108.97575,141.673958 C107.197667,141.917792 103.965292,142.208333 98.6666667,142.208333 C93.3680417,142.208333 90.1364583,141.917792 88.358375,141.673958 L88.358375,141.673958 Z M90.75,143.791667 L90.75,144.59125 C90.75,145.016375 90.38425,145.375 89.9504167,145.375 L88.3670833,145.375 C87.9348333,145.375 87.5833333,145.0235 87.5833333,144.59125 L87.5833333,143.088667 C87.76225,143.158333 87.9467083,143.216125 88.1430417,143.243042 C88.8175417,143.334875 89.6962917,143.433833 90.804625,143.5225 C90.77375,143.607208 90.75,143.695875 90.75,143.791667 L90.75,143.791667 Z M91.8203333,127.259292 C92.324625,125.746417 93.8881667,125.583333 94.5373333,125.583333 L102.796792,125.583333 C103.445167,125.583333 105.008708,125.746417 105.531208,127.307583 L107.01875,130.957958 C106.753542,130.870083 106.408375,130.729167 105.990375,130.558958 C104.329458,129.882083 101.548333,128.75 98.6666667,128.75 C95.7857917,128.75 93.0046667,129.882083 91.3429583,130.558958 C90.9107083,130.734708 90.5520833,130.881958 90.2845,130.969042 C90.2757917,130.972208 90.2670833,130.973 90.2591667,130.975375 L91.8203333,127.259292 Z M106.641125,135.635125 C107.800125,135.549625 108.84275,135.444333 109.75,135.322417 L109.75,136.913667 C109.713583,136.913667 109.679542,136.901792 109.643125,136.906542 C108.475417,137.06725 106.716333,137.246167 104.217833,137.359375 C104.313625,135.828292 106.541375,135.64225 106.641125,135.635125 L106.641125,135.635125 Z M94.7059583,137.41875 C94.67825,134.966958 92.1465,134.146 90.8085833,134.056542 C89.6385,133.969458 88.5895417,133.863375 87.691,133.739875 C87.6537917,133.735125 87.61975,133.746208 87.5833333,133.746208 L87.5833333,133.549875 C87.5833333,133.085958 87.9609583,132.708333 88.424875,132.708333 L89.2862083,132.708333 C89.79525,132.708333 90.2955833,132.629958 90.7729583,132.475583 C91.06825,132.379 91.464875,132.219083 91.9406667,132.025125 C93.59525,131.351417 96.0953333,130.333333 98.6666667,130.333333 C101.238,130.333333 103.738875,131.351417 105.393458,132.025125 C105.86925,132.219083 106.265875,132.379 106.561167,132.475583 C107.038542,132.629958 107.538083,132.708333 108.047125,132.708333 L108.90925,132.708333 C109.373167,132.708333 109.75,133.085958 109.75,133.549875 L109.75,133.746208 C109.713583,133.746208 109.679542,133.734333 109.643125,133.739875 C108.743792,133.863375 107.695625,133.969458 106.530292,134.05575 C105.186833,134.146 102.655875,134.966958 102.627375,137.41875 C101.447792,137.454375 100.132833,137.47575 98.6666667,137.47575 C97.2005,137.47575 95.8863333,137.454375 94.7059583,137.41875 L94.7059583,137.41875 Z M87.5833333,135.322417 C88.4905833,135.444333 89.534,135.549625 90.69775,135.635125 C90.7207083,135.6375 93.018125,135.814042 93.1162917,137.359375 C90.617,137.246167 88.8587083,137.06725 87.691,136.906542 C87.6537917,136.901792 87.61975,136.913667 87.5833333,136.913667 L87.5833333,135.322417 Z M109.875083,131.328458 L111.101375,130.101375 C111.410917,129.791833 111.410917,129.2915 111.101375,128.981958 C110.792625,128.672417 110.2915,128.672417 109.981958,128.981958 L108.51975,130.444958 L107.015583,126.758167 C106.447958,125.056875 104.831375,124 102.796792,124 L94.5373333,124 C92.5019583,124 90.885375,125.056875 90.3399167,126.701958 L88.7795417,130.409333 L87.351375,128.981958 C87.042625,128.672417 86.5415,128.672417 86.2319583,128.981958 C85.9232083,129.2915 85.9232083,129.791833 86.2319583,130.101375 L87.4590417,131.328458 C86.6016667,131.702125 86,132.556333 86,133.549875 L86,140.777 C86,140.926625 86.0150417,141.073083 86.040375,141.215583 C86.0229583,141.281292 86,141.345417 86,141.416667 L86,144.59125 C86,145.896708 87.0624167,146.958333 88.3670833,146.958333 L89.9504167,146.958333 C91.2645833,146.958333 92.3333333,145.896708 92.3333333,144.59125 L92.3333333,143.791667 C92.3333333,143.732292 92.3119583,143.680042 92.3000833,143.624625 C93.9910833,143.722792 96.089,143.791667 98.6666667,143.791667 C101.245125,143.791667 103.34225,143.722792 105.034042,143.624625 C105.021375,143.680042 105,143.732292 105,143.791667 L105,144.59125 C105,145.896708 106.062417,146.958333 107.367083,146.958333 L108.950417,146.958333 C110.264583,146.958333 111.333333,145.896708 111.333333,144.59125 L111.333333,141.416667 C111.333333,141.345417 111.310375,141.281292 111.292958,141.215583 C111.319083,141.073083 111.333333,140.926625 111.333333,140.777 L111.333333,133.549875 C111.333333,132.556333 110.731667,131.702125 109.875083,131.328458 Z M101.041904,139.833333 L101.033196,139.833333 C100.528112,139.833333 99.2131542,139.842042 98.6669042,139.842042 C98.1206542,139.842042 96.8056958,139.833333 96.3006125,139.833333 L96.2919042,139.833333 C95.8588625,139.833333 95.5049875,140.187208 95.5002375,140.621042 C95.4954875,141.058042 95.8461958,141.420625 96.2831958,141.425375 C96.7930292,141.430917 98.1166958,141.434083 98.6669042,141.434083 C99.2171125,141.434083 100.540779,141.428542 101.050612,141.423 C101.487612,141.419042 101.838321,141.058042 101.833571,140.621042 C101.828821,140.187208 101.474946,139.833333 101.041904,139.833333 Z M100.250238,135.875 C100.250238,135.438 99.8955708,135.083333 99.4585708,135.083333 L97.8752375,135.083333 C97.4382375,135.083333 97.0835708,135.438 97.0835708,135.875 C97.0835708,136.312 97.4382375,136.666667 97.8752375,136.666667 L99.4585708,136.666667 C99.8955708,136.666667 100.250238,136.312 100.250238,135.875 Z" id="Combined-Shape"></path>
        </g>
    </g>
</svg>

<svg width="38" height="38" viewBox="0 0 38 38" xmlns="http://www.w3.org/2000/svg"><g id="Nav" fill="none" fill-rule="evenodd"><g id="Categories_Selected_Mobile-" transform="translate(-80 -116)" fill="#AEAEAE"><path d="M108.95 145.375h-1.583a.785.785 0 0 1-.784-.784v-.8a.78.78 0 0 0-.053-.268 48.522 48.522 0 0 0 2.66-.28c.197-.027.382-.085.56-.154v1.502a.802.802 0 0 1-.8.784zm-20.592-3.701a.905.905 0 0 1-.775-.897v-2.287c1.962.263 5.453.57 11.084.57 5.63 0 9.121-.307 11.083-.57v2.287a.905.905 0 0 1-.774.897c-1.778.244-5.01.534-10.31.534-5.298 0-8.53-.29-10.308-.534zm2.392 2.118v.8a.802.802 0 0 1-.8.783h-1.583a.785.785 0 0 1-.784-.784v-1.502c.18.07.364.127.56.154.675.092 1.553.19 2.662.28a.78.78 0 0 0-.055.269zm1.07-16.533c.505-1.513 2.068-1.676 2.717-1.676h8.26c.648 0 2.212.163 2.734 1.725l1.488 3.65c-.265-.088-.61-.229-1.029-.399-1.66-.677-4.442-1.809-7.323-1.809-2.881 0-5.662 1.132-7.324 1.809-.432.176-.79.323-1.059.41-.008.003-.017.004-.025.006l1.561-3.716zm14.821 8.376a52.803 52.803 0 0 0 3.109-.313v1.592c-.036 0-.07-.012-.107-.007-1.168.16-2.927.34-5.425.452.096-1.53 2.323-1.717 2.423-1.724zm-11.935 1.784c-.028-2.452-2.56-3.273-3.897-3.362a51.212 51.212 0 0 1-3.118-.317c-.037-.005-.071.006-.108.006v-.196c0-.464.378-.842.842-.842h.861c.51 0 1.01-.078 1.487-.232.295-.097.692-.257 1.168-.45 1.654-.675 4.154-1.693 6.726-1.693 2.571 0 5.072 1.018 6.726 1.692.476.194.873.354 1.168.45a4.82 4.82 0 0 0 1.486.233h.862c.464 0 .841.378.841.842v.196c-.036 0-.07-.012-.107-.006-.9.123-1.947.23-3.113.316-1.343.09-3.874.911-3.903 3.363-1.18.035-2.494.057-3.96.057-1.466 0-2.78-.022-3.961-.057zm-7.123-2.097c.908.122 1.951.228 3.115.313.023.002 2.32.179 2.418 1.724-2.499-.113-4.257-.292-5.425-.452-.037-.005-.071.007-.108.007v-1.592zm22.292-3.994l1.226-1.227a.79.79 0 1 0-1.119-1.119l-1.462 1.463-1.504-3.687c-.568-1.701-2.185-2.758-4.22-2.758h-8.259c-2.035 0-3.652 1.057-4.197 2.702l-1.56 3.707-1.429-1.427a.79.79 0 1 0-1.119 1.12l1.227 1.226A2.426 2.426 0 0 0 86 133.55v7.227c0 .15.015.296.04.439-.017.065-.04.13-.04.2v3.175a2.37 2.37 0 0 0 2.367 2.367h1.583a2.377 2.377 0 0 0 2.383-2.367v-.8c0-.059-.021-.111-.033-.166 1.691.098 3.789.167 6.367.167s4.675-.07 6.367-.167c-.013.055-.034.107-.034.167v.8a2.37 2.37 0 0 0 2.367 2.366h1.583a2.377 2.377 0 0 0 2.383-2.367v-3.174c0-.072-.023-.136-.04-.201a2.43 2.43 0 0 0 .04-.439v-7.227c0-.994-.601-1.848-1.458-2.222zm-8.833 8.505h-.009c-.505 0-1.82.009-2.366.009s-1.861-.009-2.366-.009h-.01a.796.796 0 0 0-.008 1.592c.51.006 1.834.01 2.384.01.55 0 1.874-.006 2.384-.012a.793.793 0 0 0 .783-.802.796.796 0 0 0-.792-.788zm-.792-3.958a.792.792 0 0 0-.791-.792h-1.584a.792.792 0 0 0 0 1.584h1.584a.792.792 0 0 0 .791-.792z" id="Combined-Shape"/></g></g></svg>
